src/img/contact-icon/phone-call.svg

<svg width="18" height="18" viewBox="0 0 18 18" fill="none" xmlns="http://www.w3.org/2000/svg">
<g clip-path="url(#clip0)">
<path d="M14.2253 11.1503C13.8568 10.7666 13.4123 10.5615 12.9412 10.5615C12.4739 10.5615 12.0256 10.7628 11.6419 11.1465L10.4415 12.3432C10.3427 12.29 10.2439 12.2407 10.1489 12.1913C10.0122 12.1229 9.88299 12.0583 9.77282 11.9899C8.64831 11.2757 7.62637 10.3449 6.64623 9.14065C6.17135 8.54041 5.85223 8.03514 5.62049 7.52227C5.93201 7.23734 6.22074 6.94102 6.50186 6.65609C6.60824 6.54972 6.71461 6.43955 6.82098 6.33318C7.61878 5.53538 7.61878 4.50205 6.82098 3.70425L5.78385 2.66712C5.66608 2.54935 5.54451 2.42778 5.43054 2.30621C5.2026 2.07067 4.96326 1.82754 4.71632 1.59959C4.34782 1.23489 3.90713 1.04114 3.44365 1.04114C2.98017 1.04114 2.53188 1.23489 2.15198 1.59959C2.14818 1.60339 2.14818 1.60339 2.14438 1.60719L0.852716 2.91026C0.366441 3.39653 0.0891121 3.98918 0.0283277 4.6768C-0.0628488 5.78612 0.263867 6.81945 0.514603 7.49568C1.13004 9.15585 2.04941 10.6945 3.42086 12.3432C5.08483 14.3301 7.08691 15.8991 9.37392 17.0046C10.2477 17.4187 11.414 17.9088 12.7171 17.9924C12.7968 17.9962 12.8804 18 12.9564 18C13.834 18 14.571 17.6847 15.1484 17.0578C15.1522 17.0502 15.1598 17.0464 15.1636 17.0388C15.3612 16.7995 15.5891 16.5829 15.8285 16.3512C15.9918 16.1954 16.159 16.0321 16.3223 15.8611C16.6984 15.4698 16.896 15.0139 16.896 14.5467C16.896 14.0756 16.6946 13.6235 16.3109 13.2436L14.2253 11.1503ZM15.5853 15.1507C15.5815 15.1507 15.5815 15.1545 15.5853 15.1507C15.4372 15.3103 15.2852 15.4546 15.1218 15.6142C14.8749 15.8497 14.6242 16.0967 14.3886 16.374C14.0049 16.7843 13.5529 16.978 12.9602 16.978C12.9032 16.978 12.8424 16.978 12.7854 16.9742C11.6571 16.9021 10.6086 16.4614 9.82221 16.0853C7.67196 15.0443 5.78385 13.5665 4.21485 11.6936C2.91938 10.1322 2.05321 8.68857 1.47955 7.13857C1.12625 6.19261 0.997079 5.4556 1.05406 4.76038C1.09205 4.3159 1.26301 3.94739 1.57833 3.63207L2.8738 2.3366C3.05995 2.16185 3.2575 2.06687 3.45125 2.06687C3.69059 2.06687 3.88434 2.21124 4.00591 2.33281C4.0097 2.3366 4.0135 2.3404 4.0173 2.3442C4.24904 2.56075 4.46939 2.78489 4.70113 3.02423C4.8189 3.1458 4.94046 3.26737 5.06203 3.39273L6.09917 4.42987C6.50186 4.83256 6.50186 5.20487 6.09917 5.60756C5.989 5.71774 5.88262 5.82791 5.77245 5.93428C5.45333 6.26099 5.14941 6.56492 4.8189 6.86124C4.8113 6.86884 4.8037 6.87264 4.7999 6.88024C4.47319 7.20695 4.53397 7.52607 4.60235 7.74261C4.60615 7.75401 4.60995 7.76541 4.61375 7.77681C4.88348 8.43024 5.26338 9.04568 5.84083 9.77889L5.84463 9.78269C6.89316 11.0744 7.99868 12.0811 9.21816 12.8523C9.37393 12.9511 9.53348 13.0309 9.68544 13.1068C9.82221 13.1752 9.95138 13.2398 10.0615 13.3082C10.0767 13.3158 10.0919 13.3272 10.1071 13.3348C10.2363 13.3994 10.3579 13.4298 10.4832 13.4298C10.7986 13.4298 10.9961 13.2322 11.0607 13.1676L12.36 11.8684C12.4891 11.7392 12.6943 11.5834 12.9336 11.5834C13.1691 11.5834 13.3629 11.7316 13.4807 11.8608C13.4845 11.8646 13.4845 11.8646 13.4883 11.8684L15.5815 13.9616C15.9728 14.3491 15.9728 14.748 15.5853 15.1507Z" fill="#41C0A5"/>
<path d="M9.72684 4.28169C10.7222 4.44885 11.6264 4.91992 12.3482 5.64174C13.07 6.36355 13.5373 7.26772 13.7082 8.26307C13.75 8.5138 13.9666 8.68856 14.2135 8.68856C14.2439 8.68856 14.2705 8.68476 14.3009 8.68096C14.582 8.63537 14.7682 8.36944 14.7226 8.08831C14.5174 6.88402 13.9476 5.7861 13.0776 4.91613C12.2076 4.04615 11.1097 3.4763 9.9054 3.27115C9.62427 3.22556 9.36214 3.41171 9.31275 3.68904C9.26336 3.96637 9.44572 4.2361 9.72684 4.28169Z" fill="#41C0A5"/>
<path d="M17.9783 7.94018C17.6402 5.95709 16.7056 4.15255 15.2696 2.71652C13.8335 1.28049 12.029 0.345932 10.0459 0.00781895C9.76858 -0.0415683 9.50644 0.148383 9.45706 0.425711C9.41147 0.706839 9.59762 0.968972 9.87875 1.01836C11.6491 1.31848 13.2637 2.15807 14.5477 3.43834C15.8318 4.72241 16.6676 6.33699 16.9677 8.10734C17.0095 8.35807 17.2261 8.53283 17.473 8.53283C17.5034 8.53283 17.53 8.52903 17.5604 8.52523C17.8377 8.48344 18.0277 8.21751 17.9783 7.94018Z" fill="#41C0A5"/>
</g>
<defs>
<clipPath id="clip0">
<rect width="18" height="18" fill="white"/>
</clipPath>
</defs>
</svg>

<svg width="18" height="18" fill="none" xmlns="http://www.w3.org/2000/svg"><g clip-path="url(#clip0)" fill="#41C0A5"><path d="M14.225 11.15c-.368-.383-.813-.588-1.284-.588-.467 0-.915.2-1.3.585l-1.2 1.196c-.098-.053-.197-.102-.292-.152a4.754 4.754 0 01-.376-.201c-1.125-.714-2.147-1.645-3.127-2.85-.475-.6-.794-1.105-1.026-1.618.312-.285.6-.581.882-.866l.319-.323c.798-.798.798-1.831 0-2.629L5.784 2.667c-.118-.118-.24-.24-.353-.36a17.94 17.94 0 00-.715-.707c-.368-.365-.809-.559-1.272-.559-.464 0-.912.194-1.292.559l-.008.007L.853 2.91a2.78 2.78 0 00-.825 1.767c-.09 1.11.236 2.142.487 2.819.615 1.66 1.534 3.198 2.906 4.847a17.877 17.877 0 005.953 4.662c.874.414 2.04.904 3.343.987.08.004.163.008.24.008.877 0 1.614-.315 2.191-.942.004-.008.012-.012.016-.02.197-.239.425-.455.665-.687.163-.156.33-.319.493-.49.376-.391.574-.847.574-1.314 0-.471-.201-.924-.585-1.303l-2.086-2.094zm1.36 4c-.004 0-.004.005 0 0-.148.16-.3.305-.463.464-.247.236-.498.483-.733.76-.384.41-.836.604-1.429.604-.057 0-.118 0-.175-.004-1.128-.072-2.176-.513-2.963-.889a16.877 16.877 0 01-5.607-4.391C2.919 10.132 2.053 8.689 1.48 7.139c-.354-.946-.483-1.683-.426-2.379.038-.444.209-.813.524-1.128l1.296-1.295c.186-.175.383-.27.577-.27.24 0 .433.144.555.266l.011.011c.232.217.452.44.684.68.118.122.24.243.361.369L6.099 4.43c.403.403.403.775 0 1.178-.11.11-.216.22-.327.326a20.2 20.2 0 01-.953.927c-.008.008-.015.012-.02.02-.326.326-.265.645-.197.862l.012.034c.27.653.65 1.269 1.227 2.002l.004.004c1.048 1.291 2.154 2.298 3.373 3.07.156.098.315.178.467.254.137.068.266.133.377.201.015.008.03.02.045.027.13.064.25.095.376.095.316 0 .513-.198.578-.262l1.299-1.3c.13-.129.334-.285.574-.285.235 0 .429.149.547.278l.007.007 2.094 2.094c.39.387.39.786.003 1.189zM9.727 4.282c.995.167 1.9.638 2.621 1.36a4.842 4.842 0 011.36 2.621.51.51 0 00.505.426c.03 0 .058-.004.088-.008a.513.513 0 00.422-.593 5.86 5.86 0 00-1.645-3.172 5.86 5.86 0 00-3.173-1.645.516.516 0 00-.592.418.507.507 0 00.414.593zm8.251 3.658a9.64 9.64 0 00-2.708-5.223 9.64 9.64 0 00-5.224-2.71.511.511 0 10-.167 1.011c1.77.3 3.385 1.14 4.669 2.42a8.606 8.606 0 012.42 4.67.51.51 0 00.505.425c.03 0 .057-.004.087-.008a.503.503 0 00.418-.585z"/></g><defs><clipPath id="clip0"><path fill="#fff" d="M0 0h18v18H0z"/></clipPath></defs></svg>
